flaticon/medical/eye.svg

<svg xmlns="http://www.w3.org/2000/svg" width="32" height="32" viewBox="0 0 24 24">
    <path d="M 21.515625 9.441406 C 20.578125 8.472656 19.640625 7.710938 18.65625 7.121094 C 16.613281 5.894531 14.296875 5.226562 11.933594 5.160156 C 11.851562 5.160156 11.769531 5.148438 11.6875 5.148438 C 11.671875 5.148438 11.65625 5.152344 11.636719 5.152344 C 11.613281 5.152344 11.589844 5.148438 11.566406 5.148438 C 8.21875 5.148438 4.964844 6.386719 2.40625 8.636719 L 0.914062 9.945312 C 0.335938 10.453125 0 11.195312 0 11.976562 C 0 12.757812 0.332031 13.5 0.910156 14.011719 L 2.421875 15.34375 C 4.984375 17.605469 8.246094 18.851562 11.605469 18.851562 C 11.621094 18.851562 11.640625 18.847656 11.65625 18.847656 C 11.667969 18.847656 11.675781 18.851562 11.6875 18.851562 C 11.730469 18.851562 11.773438 18.84375 11.816406 18.84375 C 14.015625 18.808594 16.203125 18.242188 18.148438 17.191406 C 19.359375 16.539062 20.527344 15.628906 21.621094 14.488281 L 24 12.011719 Z M 17.730469 12 C 17.730469 15.289062 15.089844 17.96875 11.820312 18.039062 C 11.765625 18.039062 11.710938 18.042969 11.65625 18.042969 C 8.335938 18.027344 5.640625 15.324219 5.640625 12 C 5.640625 8.683594 8.328125 5.984375 11.636719 5.957031 C 11.738281 5.957031 11.835938 5.964844 11.9375 5.96875 C 15.152344 6.101562 17.730469 8.75 17.730469 12 Z M 2.953125 14.738281 L 1.445312 13.40625 C 1.039062 13.046875 0.804688 12.527344 0.804688 11.976562 C 0.804688 11.425781 1.039062 10.90625 1.445312 10.550781 L 2.9375 9.242188 C 4.269531 8.074219 5.796875 7.195312 7.429688 6.640625 C 5.851562 7.898438 4.835938 9.832031 4.835938 12 C 4.835938 14.152344 5.835938 16.074219 7.394531 17.332031 C 5.78125 16.773438 4.269531 15.898438 2.953125 14.738281 Z M 21.039062 13.929688 C 20.003906 15.011719 18.902344 15.867188 17.765625 16.480469 C 17.230469 16.773438 16.671875 17.019531 16.101562 17.230469 C 17.589844 15.972656 18.539062 14.097656 18.539062 12 C 18.539062 9.917969 17.601562 8.054688 16.132812 6.796875 C 16.859375 7.074219 17.566406 7.40625 18.238281 7.8125 C 19.167969 8.367188 20.046875 9.082031 20.9375 10.003906 L 22.882812 12.011719 Z M 21.039062 13.929688"/>
    <path d="M2.753906 10.34375L2.496094 10.164062 1.714844 10.851562C1.394531 11.132812 1.210938 11.542969 1.207031 11.976562 1.207031 12.414062 1.390625 12.824219 1.710938 13.105469L2.523438 13.820312 2.785156 13.632812C3.3125 13.253906 3.625 12.644531 3.625 12 3.625 11.339844 3.300781 10.71875 2.753906 10.34375zM2.542969 12.765625L2.242188 12.5C2.097656 12.371094 2.015625 12.179688 2.015625 11.980469 2.015625 11.777344 2.097656 11.585938 2.246094 11.457031L2.527344 11.210938C2.714844 11.429688 2.820312 11.707031 2.820312 12 2.820312 12.28125 2.71875 12.550781 2.542969 12.765625zM11.285156 8.777344L11.285156 9.210938C11.207031 9.222656 11.128906 9.234375 11.054688 9.253906L10.898438 8.847656C10.816406 8.640625 10.582031 8.539062 10.375 8.617188 10.167969 8.699219 10.066406 8.933594 10.144531 9.140625L10.304688 9.542969C10.199219 9.605469 10.097656 9.671875 10 9.746094L9.691406 9.4375C9.535156 9.277344 9.28125 9.277344 9.121094 9.4375 8.964844 9.59375 8.964844 9.847656 9.121094 10.003906L9.429688 10.3125C9.386719 10.375 9.339844 10.441406 9.300781 10.503906L8.902344 10.328125C8.695312 10.238281 8.460938 10.332031 8.371094 10.535156 8.28125 10.738281 8.371094 10.976562 8.574219 11.066406L8.972656 11.242188C8.941406 11.359375 8.914062 11.476562 8.898438 11.597656L8.460938 11.597656C8.242188 11.597656 8.058594 11.777344 8.058594 12 8.058594 12.222656 8.242188 12.402344 8.460938 12.402344L8.898438 12.402344C8.910156 12.480469 8.921875 12.558594 8.941406 12.632812L8.535156 12.789062C8.328125 12.867188 8.222656 13.101562 8.304688 13.308594 8.367188 13.46875 8.519531 13.566406 8.679688 13.566406 8.730469 13.566406 8.777344 13.558594 8.828125 13.539062L9.230469 13.382812C9.292969 13.488281 9.359375 13.589844 9.429688 13.6875L9.121094 13.996094C8.964844 14.152344 8.964844 14.40625 9.121094 14.566406 9.199219 14.644531 9.304688 14.683594 9.40625 14.683594 9.511719 14.683594 9.613281 14.644531 9.691406 14.566406L10 14.257812C10.0625 14.304688 10.125 14.347656 10.191406 14.390625L10.015625 14.789062C9.925781 14.992188 10.019531 15.230469 10.222656 15.320312 10.273438 15.34375 10.328125 15.351562 10.382812 15.351562 10.539062 15.351562 10.6875 15.261719 10.753906 15.113281L10.929688 14.714844C11.042969 14.746094 11.164062 14.773438 11.285156 14.789062L11.285156 15.222656C11.285156 15.449219 11.464844 15.628906 11.6875 15.628906 11.910156 15.628906 12.089844 15.449219 12.089844 15.222656L12.089844 14.789062C12.167969 14.777344 12.242188 14.765625 12.320312 14.746094L12.476562 15.152344C12.539062 15.3125 12.691406 15.410156 12.851562 15.410156 12.898438 15.410156 12.949219 15.402344 12.996094 15.382812 13.203125 15.300781 13.308594 15.070312 13.226562 14.863281L13.070312 14.457031C13.175781 14.398438 13.277344 14.328125 13.371094 14.257812L13.679688 14.566406C13.757812 14.644531 13.863281 14.683594 13.964844 14.683594 14.070312 14.683594 14.171875 14.644531 14.25 14.566406 14.410156 14.40625 14.410156 14.152344 14.25 13.996094L13.941406 13.6875C13.988281 13.625 14.03125 13.5625 14.074219 13.496094L14.472656 13.671875C14.523438 13.695312 14.582031 13.707031 14.636719 13.707031 14.789062 13.707031 14.9375 13.617188 15.003906 13.464844 15.09375 13.261719 15 13.023438 14.796875 12.933594L14.402344 12.757812C14.433594 12.644531 14.457031 12.523438 14.476562 12.402344L14.910156 12.402344C15.132812 12.402344 15.3125 12.222656 15.3125 12 15.3125 11.777344 15.132812 11.597656 14.910156 11.597656L14.476562 11.597656C14.464844 11.519531 14.449219 11.445312 14.433594 11.367188L14.839844 11.210938C15.046875 11.132812 15.148438 10.898438 15.070312 10.691406 14.988281 10.484375 14.753906 10.378906 14.546875 10.460938L14.140625 10.617188C14.082031 10.511719 14.015625 10.410156 13.941406 10.316406L14.25 10.003906C14.410156 9.847656 14.410156 9.59375 14.25 9.4375 14.09375 9.277344 13.839844 9.277344 13.679688 9.4375L13.371094 9.746094C13.3125 9.699219 13.246094 9.65625 13.183594 9.613281L13.359375 9.214844C13.449219 9.011719 13.355469 8.773438 13.152344 8.683594 12.949219 8.59375 12.710938 8.683594 12.621094 8.890625L12.445312 9.285156C12.328125 9.253906 12.210938 9.230469 12.089844 9.210938L12.089844 8.777344C12.089844 8.554688 11.910156 8.375 11.6875 8.375 11.464844 8.375 11.285156 8.554688 11.285156 8.777344zM13.703125 12C13.703125 13.109375 12.796875 14.015625 11.6875 14.015625 10.574219 14.015625 9.671875 13.109375 9.671875 12 9.671875 10.890625 10.574219 9.984375 11.6875 9.984375 12.796875 9.984375 13.703125 10.890625 13.703125 12zM13.703125 12"/>
</svg>

<svg xmlns="http://www.w3.org/2000/svg" width="32" height="32" viewBox="0 0 24 24">
    <path d="M21.516 9.441c-.938-.968-1.875-1.73-2.86-2.32a13.809 13.809 0 0 0-6.722-1.96c-.082 0-.164-.013-.246-.013-.016 0-.032.004-.051.004-.024 0-.047-.004-.07-.004-3.348 0-6.602 1.239-9.16 3.489L.913 9.945A2.706 2.706 0 0 0 0 11.977c0 .78.332 1.523.91 2.035l1.512 1.332c2.562 2.261 5.824 3.508 9.183 3.508.016 0 .036-.004.051-.004.012 0 .02.004.031.004.043 0 .086-.008.13-.008 2.199-.035 4.386-.602 6.331-1.653 1.211-.652 2.38-1.562 3.473-2.703L24 12.012zM17.73 12c0 3.29-2.64 5.969-5.91 6.04l-.164.003A6.05 6.05 0 0 1 5.641 12c0-3.316 2.687-6.016 5.996-6.043.101 0 .199.008.3.012C15.152 6.102 17.73 8.75 17.73 12zM2.953 14.738l-1.508-1.332a1.906 1.906 0 0 1-.64-1.43c0-.55.234-1.07.64-1.425l1.492-1.309A13.309 13.309 0 0 1 7.43 6.641 6.843 6.843 0 0 0 4.836 12c0 2.152 1 4.074 2.559 5.332a13.302 13.302 0 0 1-4.442-2.594zm18.086-.808c-1.035 1.082-2.137 1.937-3.273 2.55-.536.293-1.094.54-1.664.75A6.833 6.833 0 0 0 18.539 12a6.837 6.837 0 0 0-2.406-5.203c.726.277 1.433.61 2.105 1.016.93.554 1.809 1.269 2.7 2.19l1.945 2.009zm0 0"/>
    <path d="M2.754 10.344l-.258-.18-.781.688c-.32.28-.504.691-.508 1.125 0 .437.184.847.504 1.128l.812.715.262-.187a2.008 2.008 0 0 0-.031-3.29zm-.211 2.422l-.3-.266a.697.697 0 0 1-.227-.52c0-.203.082-.394.23-.523l.281-.246c.188.219.293.496.293.789 0 .281-.101.55-.277.766zm0 0M11.285 8.777v.434a2.183 2.183 0 0 0-.23.043l-.157-.406a.409.409 0 0 0-.523-.23.409.409 0 0 0-.23.523l.16.402a3.176 3.176 0 0 0-.305.203l-.309-.309a.399.399 0 0 0-.57 0 .4.4 0 0 0 0 .567l.309.309c-.043.062-.09.128-.13.19l-.398-.175a.403.403 0 0 0-.53.207c-.09.203 0 .442.202.531l.399.176a2.734 2.734 0 0 0-.075.356h-.437a.404.404 0 0 0-.402.402c0 .223.183.402.402.402h.437c.012.078.024.157.043.23l-.406.157a.4.4 0 0 0-.23.52.404.404 0 0 0 .523.23l.402-.156c.063.105.13.207.2.305l-.309.308a.406.406 0 0 0 0 .57.405.405 0 0 0 .57 0l.309-.308c.063.047.125.09.191.133l-.175.398a.404.404 0 0 0 .207.531c.05.024.105.032.16.032.156 0 .305-.09.37-.239l.177-.398c.113.031.234.058.355.074v.434a.403.403 0 1 0 .805 0v-.434c.078-.012.152-.023.23-.043l.157.406a.404.404 0 0 0 .52.23.401.401 0 0 0 .23-.519l-.157-.406c.106-.059.207-.129.301-.2l.309.31a.405.405 0 0 0 .57 0 .399.399 0 0 0 0-.57l-.309-.31a3.33 3.33 0 0 0 .133-.19l.399.175a.4.4 0 0 0 .53-.207.404.404 0 0 0-.206-.531l-.395-.176c.032-.113.055-.235.075-.356h.433a.402.402 0 1 0 0-.804h-.433c-.012-.078-.028-.153-.043-.23l.406-.157a.403.403 0 1 0-.293-.75l-.406.156a2.229 2.229 0 0 0-.2-.3l.309-.313a.394.394 0 0 0 0-.566.399.399 0 0 0-.57 0l-.309.308c-.059-.047-.125-.09-.187-.133l.175-.398a.404.404 0 0 0-.738-.324l-.176.394a3.585 3.585 0 0 0-.355-.074v-.434a.402.402 0 1 0-.805 0zM13.703 12a2.02 2.02 0 0 1-2.015 2.016A2.018 2.018 0 0 1 9.671 12c0-1.11.902-2.016 2.015-2.016A2.02 2.02 0 0 1 13.704 12zm0 0"/>
</svg>
